X: 1842
T: River Boat
B: australian traditional tunes wiki
M:2/4
L:1/16
R: Polka
Q: 1/4=100
K:D
V:1 
B2|"D"A3B A2f2|e2d2 d2cB|A2AB A2F2|"A"E4-EGFE|
"D"D2F2 A2ff|e2d2 d2cB|"A"A2c2 ec3|"D"d6:|
|:de|"D"f2df "A"a2e2|"D"f2df a2aa|a2ff d2Ad|"A"f2e2 e2fe|
"D"f2df "A"a2e2|"D"f2df "A"a3g|f2e2 dc3|"D"d6:|
% abcbook-tune_id 6342d53a3f893e80ec2b9a17


% abcbook-boost 0
% abcbook-tablature 
% abcbook-transpose 
% abcbook-lastupdated 1665324387261
% abcbook-soundfonts 
% abcbook-repeats 1
% NFF Book 2006

